; generated by PrusaSlicer 2.4.1+win64 on 2022-04-03 at 22:19:38 UTC


;
;

;
;
; 

; external perimeters extrusion width = 0.45mm
; perimeters extrusion width = 0.45mm
; infill extrusion width = 0.45mm
; solid infill extrusion width = 0.45mm
; top infill extrusion width = 0.40mm
; first layer extrusion width = 0.42mm

M73 P0 R240
M201 X2500 Y2500 Z400 E5000 ; sets maximum accelerations, mm/sec^2
M203 X180 Y180 Z12 E80 ; sets maximum feedrates, mm / sec
M204 P1250 R1250 T2500 ; sets acceleration (P, T) and retract acceleration (R), mm/sec^2
M205 X8.00 Y8.00 Z2.00 E10.00 ; sets the jerk limits, mm/sec
M205 S0 T0 ; sets the minimum extruding and travel feed rate, mm/sec
M107
;TYPE:Custom
M862.3 P "MINI" ; printer model check
G90 ; use absolute coordinates
M83 ; extruder relative mode
M104 S170 ; set extruder temp for bed leveling
M140 S60 ; set bed temp
M109 R170 ; wait for bed leveling temp
M190 S60 ; wait for bed temp
M204 T1250 ; set travel acceleration
G28 ; home all without mesh bed level
G29 ; mesh bed leveling 
M204 T2500 ; restore travel acceleration
M104 S215 ; set extruder temp
G92 E0
G1 Y-2 X179 F2400
G1 Z3 F720
M109 S215 ; wait for extruder temp

; intro line
G1 X170 F1000
G1 Z0.2 F720
G1 X110 E8 F900
G1 X40 E10 F700
G92 E0

M221 S95 ; set flow
G21 ; set units to millimeters
G90 ; use absolute coordinates
M83 ; use relative distances for extrusion
M900 K0.2 ; Filament gcode LA 1.5
; ; Filament gcode LA 1.0
M107
;LAYER_CHANGE
;Z:0.2
;HEIGHT:0.2
;BEFORE_LAYER_CHANGE
G92 E0.0
;0.2


G1 E-3.2 F4200
G1 Z.2 F720
;AFTER_LAYER_CHANGE
;0.2
G1 Z.4
G1 X35.599 Y35.425 F9000
G1 Z.2 F720
G1 E3.2 F2400
M204 P800
;TYPE:Skirt/Brim
;WIDTH:0.42
G1 F1200
G1 X41.379 Y30.217 E.24395
G1 X47.84 Y25.498 E.25086
G1 X54.68 Y21.514 E.24818
G1 X61.493 Y18.411 E.23474
G1 X68.72 Y15.939 E.23948
G1 X75.968 Y14.23 E.23351
G1 X83.117 Y13.249 E.22624
G1 X90.298 Y12.949 E.22534
G1 X96.952 Y13.255 E.20886
G1 X103.983 Y14.22 E.22252
G1 X111.312 Y15.947 E.23607
G1 X118.405 Y18.367 E.235
G1 X125.367 Y21.536 E.23983
G1 X132.255 Y25.56 E.25012
G1 X138.594 Y30.194 E.24621
G1 X144.458 Y35.48 E.24752
G1 X149.749 Y41.338 E.24752
G1 X154.522 Y47.869 E.25362
G1 X158.436 Y54.58 E.24361
G1 X161.61 Y61.54 E.23985
G1 X164.092 Y68.823 E.24124
G1 X165.77 Y75.968 E.23013
G1 X166.752 Y83.132 E.2267
G1 X167.058 Y90.107 E.21891
G1 X166.752 Y96.868 E.21221
G1 X165.77 Y104.032 E.2267
G1 X164.061 Y111.28 E.23351
G1 X161.589 Y118.507 E.23948
G1 X158.486 Y125.32 E.23474
G1 X154.502 Y132.16 E.24819
G1 X149.783 Y138.62 E.25086
G1 X144.401 Y144.575 E.25165
G1 X138.621 Y149.783 E.24395
G1 X132.16 Y154.502 E.25086
G1 X125.32 Y158.486 E.24818
G1 X118.507 Y161.589 E.23474
G1 X111.28 Y164.061 E.23948
G1 X104.032 Y165.77 E.23351
G1 X96.883 Y166.751 E.22624
G1 X89.909 Y167.059 E.21889
G1 X83.048 Y166.745 E.21534
G1 X76.017 Y165.78 E.22252
G1 X68.688 Y164.053 E.23607
G1 X61.595 Y161.633 E.235
G1 X54.633 Y158.464 E.23983
G1 X47.745 Y154.44 E.25012
G1 X41.406 Y149.806 E.24621
G1 X35.542 Y144.52 E.24752
G1 X30.251 Y138.662 E.24752
G1 X25.478 Y132.131 E.25362
G1 X21.564 Y125.42 E.24361
G1 X18.39 Y118.46 E.23985
G1 X15.908 Y111.177 E.24125
G1 X14.23 Y104.032 E.23013
G1 X13.248 Y96.868 E.2267
G1 X12.942 Y89.893 E.21891
G1 X13.248 Y83.132 E.21221
G1 X14.23 Y75.968 E.2267
G1 X15.939 Y68.72 E.23351
G1 X18.411 Y61.493 E.23948
G1 X21.514 Y54.68 E.23474
G1 X25.498 Y47.84 E.24819
G1 X30.217 Y41.379 E.25086
G1 X35.559 Y35.47 E.24977
M204 P1000
; printing object Base.stl id:0 copy 0
G1 E-2.24 F4200
;WIPE_START
M73 P0 R239
G1 F7200
G1 X36.781 Y34.367 E-.912
;WIPE_END
G1 E-.048 F4200
G1 Z.4 F720
G1 X37.748 Y37.748 F9000
G1 Z.2 F720
G1 E3.2 F2400
M204 P800
;TYPE:Perimeter
G1 F1200
G1 X43.454 Y32.607 E.24081
G1 X49.628 Y28.109 E.23949
G1 X56.161 Y24.311 E.23696
G1 X62.677 Y21.345 E.22447
G1 X62.923 Y21.247 E.00831
G1 X69.564 Y18.989 E.21992
G1 X76.486 Y17.352 E.22301
G1 X83.327 Y16.407 E.21656
G1 X90.003 Y16.104 E.20951
G1 X96.607 Y16.401 E.20727
G1 X103.378 Y17.326 E.21429
G1 X110.435 Y18.988 E.22731
G1 X117.267 Y21.32 E.22636
G1 X123.972 Y24.377 E.23103
G1 X130.436 Y28.15 E.23469
G1 X136.547 Y32.608 E.23717
G1 X142.198 Y37.696 E.23842
G1 X147.296 Y43.338 E.23841
G1 X151.89 Y49.627 E.24421
G1 X155.657 Y56.093 E.23462
G1 X158.707 Y62.8 E.23102
G1 X161.033 Y69.634 E.22635
G1 X162.648 Y76.485 E.22071
G1 X163.593 Y83.327 E.21654
G1 X163.895 Y90 E.20945
G1 X163.593 Y96.673 E.20945
G1 X162.648 Y103.514 E.21654
G1 X161.011 Y110.436 E.22301
G1 X158.753 Y117.076 E.21992
G1 X158.655 Y117.323 E.00832
G1 X155.689 Y123.839 E.22447
G1 X151.891 Y130.372 E.23696
G1 X147.393 Y136.546 E.23949
G1 X142.252 Y142.252 E.24081
G1 X136.546 Y147.393 E.24081
G1 X130.372 Y151.891 E.23949
G1 X123.839 Y155.689 E.23696
G1 X117.323 Y158.655 E.22447
G1 X117.077 Y158.753 E.00831
G1 X110.436 Y161.011 E.21992
G1 X103.514 Y162.648 E.22301
G1 X96.673 Y163.593 E.21656
G1 X89.999 Y163.896 E.20946
G1 X83.393 Y163.599 E.20733
G1 X76.622 Y162.674 E.21429
G1 X69.565 Y161.012 E.22731
G1 X62.733 Y158.68 E.22636
G1 X56.028 Y155.623 E.23103
G1 X49.564 Y151.85 E.23469
G1 X43.453 Y147.392 E.23717
G1 X37.802 Y142.304 E.23842
G1 X32.704 Y136.662 E.23841
G1 X28.11 Y130.373 E.24421
G1 X24.343 Y123.907 E.23462
G1 X21.293 Y117.2 E.23102
G1 X18.967 Y110.366 E.22635
G1 X17.352 Y103.515 E.22071
G1 X16.407 Y96.673 E.21654
G1 X16.104 Y90 E.20945
G1 X16.407 Y83.327 E.20945
G1 X17.352 Y76.486 E.21654
G1 X18.989 Y69.564 E.22301
G1 X21.247 Y62.923 E.21992
G1 X21.345 Y62.677 E.00831
G1 X24.311 Y56.161 E.22447
G1 X28.109 Y49.628 E.23696
G1 X32.607 Y43.454 E.23949
G1 X37.708 Y37.793 E.23893
M204 P1000
G1 X37.481 Y37.481 F9000
M204 P800
;TYPE:External perimeter
G1 F1200
G1 X43.216 Y32.314 E.24204
G1 X49.421 Y27.793 E.24071
G1 X55.988 Y23.975 E.23815
G1 X62.529 Y20.998 E.22535
G1 X62.793 Y20.893 E.0089
G1 X69.46 Y18.626 E.22078
G1 X76.416 Y16.981 E.22414
G1 X83.293 Y16.031 E.21766
G1 X90.001 Y15.727 E.21055
G1 X96.641 Y16.025 E.20838
G1 X103.447 Y16.955 E.21539
G1 X110.539 Y18.626 E.22845
G1 X117.406 Y20.969 E.22752
G1 X124.145 Y24.042 E.23221
G1 X130.643 Y27.834 E.23588
G1 X136.785 Y32.315 E.23838
G1 X142.465 Y37.429 E.23963
G1 X147.589 Y43.099 E.23963
G1 X152.206 Y49.42 E.24544
G1 X155.992 Y55.919 E.23583
G1 X159.058 Y62.661 E.2322
G1 X161.396 Y69.53 E.22751
G1 X163.019 Y76.416 E.22184
G1 X163.969 Y83.292 E.21764
G1 X164.273 Y90 E.21053
G1 X163.969 Y96.708 E.21053
G1 X163.019 Y103.584 E.21764
G1 X161.374 Y110.54 E.22414
G1 X159.107 Y117.207 E.22078
G1 X159.002 Y117.471 E.0089
G1 X156.025 Y124.012 E.22535
G1 X152.207 Y130.579 E.23815
G1 X147.686 Y136.784 E.24071
G1 X142.519 Y142.519 E.24204
G1 X136.784 Y147.686 E.24204
G1 X130.579 Y152.207 E.24071
G1 X124.012 Y156.025 E.23815
G1 X117.471 Y159.002 E.22535
G1 X117.207 Y159.107 E.0089
G1 X110.54 Y161.374 E.22078
G1 X103.584 Y163.019 E.22414
G1 X96.707 Y163.969 E.21766
G1 X89.999 Y164.273 E.21053
G1 X83.359 Y163.975 E.2084
G1 X76.553 Y163.045 E.21539
G1 X69.461 Y161.374 E.22845
G1 X62.594 Y159.031 E.22752
G1 X55.855 Y155.959 E.23221
G1 X49.357 Y152.166 E.23588
G1 X43.215 Y147.685 E.23838
G1 X37.535 Y142.572 E.23963
G1 X32.411 Y136.901 E.23964
G1 X27.794 Y130.58 E.24544
G1 X24.008 Y124.081 E.23583
G1 X20.942 Y117.339 E.2322
G1 X18.604 Y110.47 E.22751
G1 X16.981 Y103.584 E.22184
G1 X16.031 Y96.708 E.21764
G1 X15.727 Y90 E.21053
G1 X16.031 Y83.292 E.21053
G1 X16.981 Y76.416 E.21764
G1 X18.626 Y69.46 E.22414
G1 X20.893 Y62.793 E.22078
G1 X20.998 Y62.529 E.0089
G1 X23.975 Y55.988 E.22535
G1 X27.793 Y49.421 E.23815
G1 X32.314 Y43.216 E.24071
G1 X37.441 Y37.526 E.24016
M204 P1000
G1 X37.868 Y37.585 F9000
G1 E-2.24 F4200
;WIPE_START
G1 F7200
G1 X38.663 Y36.423 E-.912
;WIPE_END
G1 E-.048 F4200
G1 Z.4 F720
G1 X144.369 Y40.267 F9000
G1 Z.2 F720
G1 E3.2 F2400
M204 P800
;TYPE:Solid infill
;WIDTH:0.420412
G1 F1200
G1 X141.998 Y37.896 E.10524
G1 X136.64 Y33.072 E.22628
G1 X146.998 Y43.43 E.45979
G1 X148.501 Y45.467 E.07943
G1 X134.495 Y31.461 E.62171
G1 X132.521 Y30.021 E.07668
G1 X149.948 Y47.448 E.77357
G1 X151.395 Y49.429 E.07701
G1 X130.548 Y28.581 E.92542
G1 X130.281 Y28.387 E.01036
G1 X129.172 Y27.739 E.04031
G1 X152.265 Y50.833 E1.02511
G1 X153.01 Y52.111 E.04645
G1 X127.89 Y26.991 E1.1151
G1 X126.607 Y26.243 E.0466
G1 X153.755 Y53.39 E1.20509
G1 X154.5 Y54.669 E.04645
G1 X125.325 Y25.494 E1.29508
G1 X124.043 Y24.746 E.0466
M73 P0 R238
G1 X155.245 Y55.948 E1.38507
G1 X155.405 Y56.223 E.01
G1 X155.755 Y56.991 E.0265
G1 X123.014 Y24.251 E1.45335
G1 X122.033 Y23.804 E.03384
G1 X156.2 Y57.971 E1.51667
G1 X156.645 Y58.95 E.03377
G1 X121.052 Y23.357 E1.57999
G1 X120.071 Y22.909 E.03384
G1 X157.091 Y59.929 E1.64332
G1 X157.536 Y60.908 E.03377
G1 X119.09 Y22.462 E1.70664
G1 X118.109 Y22.015 E.03384
G1 X157.982 Y61.888 E1.76996
G1 X158.427 Y62.867 E.03377
G1 X117.134 Y21.574 E1.83301
G1 X116.323 Y21.297 E.02688
G1 X158.709 Y63.683 E1.88151
G1 X158.984 Y64.492 E.02683
G1 X115.513 Y21.02 E1.92971
G1 X114.702 Y20.744 E.02688
G1 X159.26 Y65.301 E1.97792
G1 X159.535 Y66.111 E.02683
G1 X113.892 Y20.467 E2.02612
G1 X113.081 Y20.191 E.02688
G1 X159.811 Y66.92 E2.07433
G1 X160.086 Y67.729 E.02683
G1 X112.271 Y19.914 E2.12253
G1 X111.46 Y19.637 E.02688
G1 X160.362 Y68.539 E2.17074
G1 X160.637 Y69.348 E.02683
M73 P1 R238
G1 X110.65 Y19.361 E2.21894
G1 X110.356 Y19.261 E.00974
G1 X109.911 Y19.156 E.01436
G1 X160.852 Y70.096 E2.26127
G1 X161.016 Y70.795 E.02253
G1 X109.213 Y18.991 E2.29957
G1 X108.514 Y18.827 E.02252
G1 X161.181 Y71.493 E2.33788
G1 X161.346 Y72.192 E.02253
G1 X107.816 Y18.662 E2.37619
G1 X107.118 Y18.498 E.02252
M73 P1 R237
G1 X161.51 Y72.89 E2.41449
G1 X161.675 Y73.589 E.02253
G1 X106.419 Y18.333 E2.4528
G1 X105.721 Y18.169 E.02252
G1 X161.84 Y74.287 E2.49111
G1 X162.004 Y74.986 E.02253
G1 X105.023 Y18.004 E2.52941
G1 X104.324 Y17.84 E.02252
G1 X162.169 Y75.684 E2.56772
G1 X162.333 Y76.383 E.02253
G1 X103.626 Y17.675 E2.60603
G1 X103.326 Y17.605 E.00967
G1 X102.973 Y17.557 E.01118
G1 X162.437 Y77.02 E2.63958
G1 X162.522 Y77.639 E.01963
G1 X102.355 Y17.472 E2.67083
G1 X101.737 Y17.387 E.01959
G1 X162.608 Y78.259 E2.70208
G1 X162.693 Y78.878 E.01963
G1 X101.118 Y17.303 E2.73333
G1 X100.5 Y17.218 E.01959
G1 X162.779 Y79.497 E2.76458
G1 X162.864 Y80.117 E.01963
G1 X99.881 Y17.134 E2.79583
G1 X99.263 Y17.049 E.01959
G1 X162.95 Y80.736 E2.82708
G1 X163.036 Y81.356 E.01963
G1 X98.645 Y16.965 E2.85833
G1 X98.026 Y16.88 E.01959
M73 P1 R236
G1 X163.121 Y81.975 E2.88958
G1 X163.207 Y82.594 E.01963
G1 X97.408 Y16.796 E2.92083
G1 X96.789 Y16.711 E.01959
G1 X163.292 Y83.214 E2.95208
G1 X163.331 Y83.787 E.01802
G1 X96.21 Y16.666 E2.9795
G1 X95.651 Y16.641 E.01756
G1 X163.356 Y84.346 E3.00544
G1 X163.382 Y84.905 E.01757
G1 X95.092 Y16.615 E3.03138
G1 X94.533 Y16.59 E.01756
G1 X163.407 Y85.464 E3.05732
G1 X163.432 Y86.023 E.01757
G1 X93.974 Y16.565 E3.08326
G1 X93.415 Y16.54 E.01756
G1 X163.458 Y86.582 E3.1092
G1 X163.483 Y87.142 E.01757
G1 X92.856 Y16.515 E3.13513
G1 X92.297 Y16.49 E.01756
G1 X163.508 Y87.701 E3.16107
G1 X163.534 Y88.26 E.01757
G1 X91.738 Y16.464 E3.18701
G1 X91.179 Y16.439 E.01756
M73 P1 R235
G1 X163.559 Y88.819 E3.21295
G1 X163.584 Y89.378 E.01757
G1 X90.62 Y16.414 E3.23889
G1 X90.062 Y16.39 E.01754
M73 P2 R235
G1 X163.61 Y89.937 E3.2648
G1 X163.592 Y90.454 E.01621
G1 X89.546 Y16.408 E3.28689
G1 X89.036 Y16.431 E.01605
G1 X163.569 Y90.964 E3.30854
G1 X163.546 Y91.475 E.01605
G1 X88.525 Y16.454 E3.33018
G1 X88.014 Y16.478 E.01605
G1 X163.522 Y91.986 E3.35183
G1 X163.499 Y92.497 E.01605
G1 X87.503 Y16.501 E3.37347
G1 X86.993 Y16.524 E.01605
G1 X163.476 Y93.007 E3.39512
G1 X163.453 Y93.518 E.01605
G1 X86.482 Y16.547 E3.41676
G1 X85.971 Y16.57 E.01605
G1 X163.43 Y94.029 E3.43841
G1 X163.407 Y94.539 E.01605
M73 P2 R234
G1 X85.46 Y16.593 E3.46005
G1 X84.95 Y16.616 E.01605
G1 X163.384 Y95.05 E3.4817
G1 X163.361 Y95.561 E.01605
G1 X84.439 Y16.639 E3.50334
G1 X83.928 Y16.662 E.01605
G1 X163.337 Y96.072 E3.52499
G1 X163.314 Y96.582 E.01605
G1 X83.418 Y16.686 E3.54663
G1 X82.943 Y16.745 E.015
G1 X163.255 Y97.057 E3.56505
G1 X163.19 Y97.526 E.01486
G1 X82.474 Y16.81 E3.58299
G1 X82.005 Y16.875 E.01486
G1 X163.125 Y97.995 E3.60094
G1 X163.06 Y98.464 E.01486
G1 X81.536 Y16.94 E3.61888
G1 X81.067 Y17.004 E.01486
G1 X162.996 Y98.933 E3.63683
G1 X162.931 Y99.402 E.01486
G1 X80.598 Y17.069 E3.65477
G1 X80.129 Y17.134 E.01486
M73 P2 R233
G1 X162.866 Y99.871 E3.67272
G1 X162.801 Y100.34 E.01486
G1 X79.66 Y17.199 E3.69066
G1 X79.191 Y17.264 E.01486
G1 X162.736 Y100.809 E3.70861
G1 X162.672 Y101.278 E.01486
G1 X78.722 Y17.328 E3.72655
G1 X78.253 Y17.393 E.01486
G1 X162.607 Y101.747 E3.7445
G1 X162.542 Y102.216 E.01486
M73 P3 R233
G1 X77.784 Y17.458 E3.76244
G1 X77.315 Y17.523 E.01486
G1 X162.477 Y102.685 E3.78039
G1 X162.412 Y103.154 E.01486
G1 X76.846 Y17.588 E3.79833
G1 X76.389 Y17.665 E.01453
G1 X162.335 Y103.611 E3.81514
G1 X162.233 Y104.042 E.01393
G1 X75.958 Y17.767 E3.82977
G1 X75.526 Y17.869 E.01393
M73 P3 R232
G1 X162.131 Y104.474 E3.8444
G1 X162.028 Y104.906 E.01393
G1 X75.094 Y17.971 E3.85903
G1 X74.662 Y18.074 E.01393
G1 X161.926 Y105.338 E3.87367
G1 X161.824 Y105.769 E.01393
G1 X74.231 Y18.176 E3.8883
G1 X73.799 Y18.278 E.01393
G1 X161.722 Y106.201 E3.90293
G1 X161.62 Y106.633 E.01393
G1 X73.367 Y18.38 E3.91756
G1 X72.935 Y18.482 E.01393
G1 X161.518 Y107.065 E3.9322
G1 X161.416 Y107.496 E.01393
G1 X72.504 Y18.584 E3.94683
G1 X72.072 Y18.686 E.01393
G1 X161.314 Y107.928 E3.96146
G1 X161.212 Y108.36 E.01393
M73 P3 R231
G1 X71.64 Y18.788 E3.97609
G1 X71.208 Y18.89 E.01393
G1 X161.109 Y108.792 E3.99072
G1 X161.007 Y109.223 E.01393
G1 X70.777 Y18.993 E4.00536
G1 X70.345 Y19.095 E.01393
G1 X160.905 Y109.655 E4.01999
G1 X160.803 Y110.087 E.01393
G1 X69.913 Y19.197 E4.03462
G1 X69.494 Y19.311 E.01364
G1 X160.689 Y110.506 E4.04815
G1 X160.553 Y110.904 E.01321
G1 X69.095 Y19.447 E4.05982
G1 X68.697 Y19.582 E.01321
G1 X160.418 Y111.303 E4.07149
G1 X160.282 Y111.701 E.01321
G1 X68.299 Y19.718 E4.08316
G1 X67.9 Y19.853 E.01321
M73 P4 R231
G1 X160.147 Y112.1 E4.09482
G1 X160.011 Y112.498 E.01321
M73 P4 R230
G1 X67.502 Y19.989 E4.10649
G1 X67.104 Y20.124 E.01321
G1 X159.876 Y112.896 E4.11816
G1 X159.74 Y113.295 E.01321
G1 X66.705 Y20.26 E4.12983
G1 X66.307 Y20.395 E.01321
G1 X159.605 Y113.693 E4.1415
G1 X159.469 Y114.091 E.01321
G1 X65.909 Y20.531 E4.15317
G1 X65.51 Y20.666 E.01321
G1 X159.334 Y114.49 E4.16484
G1 X159.198 Y114.888 E.01321
G1 X65.112 Y20.802 E4.1765
G1 X64.714 Y20.937 E.01321
G1 X159.063 Y115.286 E4.18817
G1 X158.927 Y115.685 E.01321
G1 X64.315 Y21.073 E4.19984
G1 X63.917 Y21.208 E.01321
M73 P4 R229
G1 X158.792 Y116.083 E4.21151
G1 X158.656 Y116.482 E.01321
G1 X63.518 Y21.344 E4.22318
G1 X63.12 Y21.479 E.01321
G1 X158.521 Y116.88 E4.23485
G1 X158.371 Y117.264 E.01294
G1 X62.736 Y21.629 E4.24525
G1 X62.369 Y21.796 E.01265
G1 X158.204 Y117.631 E4.25413
G1 X158.037 Y117.998 E.01265
G1 X62.002 Y21.963 E4.263
G1 X61.635 Y22.13 E.01265
G1 X157.87 Y118.365 E4.27188
G1 X157.703 Y118.732 E.01265
G1 X61.268 Y22.297 E4.28075
G1 X60.902 Y22.464 E.01265
G1 X157.536 Y119.098 E4.28963
G1 X157.369 Y119.465 E.01265
M73 P4 R228
G1 X60.535 Y22.631 E4.2985
G1 X60.168 Y22.798 E.01265
G1 X157.202 Y119.832 E4.30737
G1 X157.035 Y120.199 E.01265
G1 X59.801 Y22.965 E4.31625
G1 X59.434 Y23.132 E.01265
M73 P5 R228
G1 X156.868 Y120.566 E4.32512
G1 X156.701 Y120.933 E.01265
G1 X59.067 Y23.299 E4.334
G1 X58.7 Y23.466 E.01265
G1 X156.534 Y121.3 E4.34287
G1 X156.367 Y121.667 E.01265
G1 X58.333 Y23.633 E4.35175
G1 X57.966 Y23.8 E.01265
G1 X156.2 Y122.034 E4.36062
G1 X156.033 Y122.4 E.01265
M73 P5 R227
G1 X57.6 Y23.967 E4.3695
G1 X57.233 Y24.134 E.01265
G1 X155.866 Y122.767 E4.37837
G1 X155.699 Y123.134 E.01265
G1 X56.866 Y24.3 E4.38725
G1 X56.499 Y24.467 E.01265
G1 X155.533 Y123.501 E4.39612
G1 X155.353 Y123.855 E.01247
G1 X56.145 Y24.647 E4.40387
G1 X55.807 Y24.843 E.01226
G1 X155.157 Y124.193 E4.41014
G1 X154.96 Y124.53 E.01226
G1 X55.47 Y25.04 E4.41641
G1 X55.132 Y25.236 E.01226
G1 X154.764 Y124.868 E4.42268
G1 X154.568 Y125.206 E.01226
G1 X54.794 Y25.432 E4.42895
G1 X54.457 Y25.629 E.01226
M73 P5 R226
G1 X154.371 Y125.543 E4.43522
