; generated by PrusaSlicer 2.4.1+win64 on 2022-04-03 at 22:21:09 UTC


;
;

;
;
; 

; external perimeters extrusion width = 0.45mm
; perimeters extrusion width = 0.45mm
; infill extrusion width = 0.45mm
; solid infill extrusion width = 0.45mm
; top infill extrusion width = 0.40mm
; first layer extrusion width = 0.42mm

M73 P0 R181
M201 X2500 Y2500 Z400 E5000 ; sets maximum accelerations, mm/sec^2
M203 X180 Y180 Z12 E80 ; sets maximum feedrates, mm / sec
M204 P1250 R1250 T2500 ; sets acceleration (P, T) and retract acceleration (R), mm/sec^2
M205 X8.00 Y8.00 Z2.00 E10.00 ; sets the jerk limits, mm/sec
M205 S0 T0 ; sets the minimum extruding and travel feed rate, mm/sec
M107
;TYPE:Custom
M862.3 P "MINI" ; printer model check
G90 ; use absolute coordinates
M83 ; extruder relative mode
M104 S170 ; set extruder temp for bed leveling
M140 S60 ; set bed temp
M109 R170 ; wait for bed leveling temp
M190 S60 ; wait for bed temp
M204 T1250 ; set travel acceleration
G28 ; home all without mesh bed level
G29 ; mesh bed leveling 
M204 T2500 ; restore travel acceleration
M104 S215 ; set extruder temp
G92 E0
G1 Y-2 X179 F2400
G1 Z3 F720
M109 S215 ; wait for extruder temp

; intro line
G1 X170 F1000
G1 Z0.2 F720
G1 X110 E8 F900
G1 X40 E10 F700
G92 E0

M221 S95 ; set flow
G21 ; set units to millimeters
G90 ; use absolute coordinates
M83 ; use relative distances for extrusion
M900 K0.2 ; Filament gcode LA 1.5
; ; Filament gcode LA 1.0
M107
;LAYER_CHANGE
;Z:0.2
;HEIGHT:0.2
;BEFORE_LAYER_CHANGE
G92 E0.0
;0.2


G1 E-3.2 F4200
G1 Z.2 F720
;AFTER_LAYER_CHANGE
;0.2
G1 Z.4
G1 X85.026 Y83.292 F9000
G1 Z.2 F720
G1 E3.2 F2400
M204 P800
;TYPE:Skirt/Brim
;WIDTH:0.42
G1 F1200
G1 X86.678 Y82.051 E.06477
G1 X87.966 Y81.803 E.04112
G1 X127.057 Y81.762 E1.22569
G1 X128.922 Y82.486 E.06273
G1 X129.085 Y82.636 E.00695
G1 X129.864 Y83.884 E.04612
G1 X129.978 Y84.666 E.02477
G1 X129.978 Y95.334 E.33449
G1 X129.585 Y96.752 E.04612
G1 X129.085 Y97.364 E.02477
G1 X128.922 Y97.514 E.00695
G1 X127.057 Y98.238 E.06273
G1 X87.966 Y98.197 E1.22569
G1 X86.678 Y97.949 E.04112
G1 X85.409 Y97.205 E.04612
G1 X84.632 Y95.291 E.06477
G1 X84.632 Y84.709 E.33181
G1 X85.01 Y83.35 E.04424
M204 P1000
G1 X85.384 Y83.462 F9000
M204 P800
G1 F1200
G1 X85.402 Y83.403 E.00195
G1 X86.775 Y82.415 E.05302
G1 X87.966 Y82.18 E.03807
G1 X127.057 Y82.139 E1.22569
G1 X128.667 Y82.764 E.05414
G1 X128.83 Y82.914 E.00695
G1 X129.6 Y84.666 E.06
G1 X129.6 Y95.334 E.33449
G1 X128.83 Y97.086 E.06
G1 X128.667 Y97.236 E.00695
G1 X127.057 Y97.861 E.05414
G1 X87.966 Y97.82 E1.22569
G1 X86.775 Y97.585 E.03808
G1 X85.612 Y96.87 E.04278
G1 X85.009 Y95.291 E.05301
G1 X85.009 Y84.709 E.33178
G1 X85.367 Y83.52 E.03895
M204 P1000
; printing object Handle.stl id:0 copy 0
G1 E-2.24 F4200
;WIPE_START
G1 F7200
G1 X85.402 Y83.403 E-.06768
G1 X86.639 Y82.513 E-.84432
;WIPE_END
G1 E-.048 F4200
G1 Z.4 F720
G1 X88.487 Y85.482 F9000
G1 Z.2 F720
G1 E3.2 F2400
M204 P800
;TYPE:Perimeter
G1 F1200
G1 X126.436 Y85.454 E1.18987
G1 X126.436 Y94.546 E.28507
G1 X88.487 Y94.518 E1.18987
G1 X88.487 Y85.542 E.28145
M204 P1000
G1 X88.11 Y85.105 F9000
M204 P800
;TYPE:External perimeter
G1 F1200
G1 X126.813 Y85.077 E1.21352
G1 X126.813 Y94.923 E.30874
G1 X88.11 Y94.895 E1.21352
G1 X88.11 Y85.165 E.30507
M204 P1000
G1 X88.509 Y85.138 F9000
G1 E-2.24 F4200
;WIPE_START
G1 F7200
G1 X89.756 Y85.161 E-.912
;WIPE_END
G1 E-.048 F4200
G1 Z.4 F720
G1 X126.323 Y86.334 F9000
G1 Z.2 F720
G1 E3.2 F2400
M204 P800
;TYPE:Solid infill
;WIDTH:0.421964
G1 F1200
G1 X125.727 Y85.737 E.02658
G1 X125.191 Y85.738 E.01688
G1 X126.154 Y86.7 E.04289
G1 X126.154 Y87.236 E.01689
G1 X124.656 Y85.738 E.06677
G1 X124.12 Y85.739 E.01688
G1 X126.154 Y87.772 E.09064
G1 X126.154 Y88.308 E.01689
G1 X123.584 Y85.739 E.11452
G1 X123.049 Y85.739 E.01688
G1 X126.154 Y88.844 E.13839
G1 X126.154 Y89.38 E.01689
G1 X122.513 Y85.74 E.16227
G1 X121.977 Y85.74 E.01688
G1 X126.154 Y89.916 E.18614
G1 X126.154 Y90.452 E.01689
G1 X121.442 Y85.74 E.21002
G1 X120.906 Y85.741 E.01688
G1 X126.154 Y90.988 E.2339
G1 X126.154 Y91.524 E.01689
G1 X120.37 Y85.741 E.25777
G1 X119.835 Y85.742 E.01688
G1 X126.154 Y92.06 E.28165
G1 X126.154 Y92.597 E.01689
G1 X119.299 Y85.742 E.30552
G1 X118.763 Y85.742 E.01688
G1 X126.154 Y93.133 E.3294
G1 X126.154 Y93.669 E.01689
G1 X118.228 Y85.743 E.35327
G1 X117.692 Y85.743 E.01688
G1 X126.154 Y94.205 E.37715
G1 X126.154 Y94.263 E.00184
G1 X125.675 Y94.263 E.01507
G1 X117.156 Y85.744 E.37971
G1 X116.621 Y85.744 E.01688
G1 X125.139 Y94.262 E.37968
G1 X124.603 Y94.262 E.01691
G1 X116.085 Y85.744 E.37964
G1 X115.549 Y85.745 E.01688
G1 X124.066 Y94.261 E.37961
G1 X123.53 Y94.261 E.01691
G1 X115.014 Y85.745 E.37957
G1 X114.478 Y85.746 E.01688
G1 X122.993 Y94.261 E.37954
G1 X122.457 Y94.26 E.01691
G1 X113.942 Y85.746 E.3795
G1 X113.407 Y85.746 E.01688
G1 X121.92 Y94.26 E.37947
G1 X121.384 Y94.259 E.01691
G1 X112.871 Y85.747 E.37943
G1 X112.336 Y85.747 E.01688
G1 X120.847 Y94.259 E.3794
G1 X120.311 Y94.259 E.01691
G1 X111.8 Y85.748 E.37936
G1 X111.264 Y85.748 E.01688
G1 X119.775 Y94.258 E.37933
G1 X119.238 Y94.258 E.01691
G1 X110.729 Y85.748 E.37929
G1 X110.193 Y85.749 E.01688
G1 X118.702 Y94.258 E.37926
G1 X118.165 Y94.257 E.01691
G1 X109.657 Y85.749 E.37922
G1 X109.122 Y85.75 E.01688
G1 X117.629 Y94.257 E.37919
G1 X117.092 Y94.256 E.01691
G1 X108.586 Y85.75 E.37915
G1 X108.05 Y85.75 E.01688
G1 X116.556 Y94.256 E.37912
G1 X116.019 Y94.256 E.01691
G1 X107.515 Y85.751 E.37908
G1 X106.979 Y85.751 E.01688
G1 X115.483 Y94.255 E.37905
G1 X114.947 Y94.255 E.01691
G1 X106.443 Y85.751 E.37901
G1 X105.908 Y85.752 E.01688
M73 P0 R180
G1 X114.41 Y94.254 E.37898
G1 X113.874 Y94.254 E.01691
G1 X105.372 Y85.752 E.37894
G1 X104.836 Y85.753 E.01688
G1 X113.337 Y94.254 E.37891
G1 X112.801 Y94.253 E.01691
G1 X104.301 Y85.753 E.37887
G1 X103.765 Y85.753 E.01688
G1 X112.264 Y94.253 E.37884
G1 X111.728 Y94.252 E.01691
G1 X103.229 Y85.754 E.3788
G1 X102.694 Y85.754 E.01688
G1 X111.191 Y94.252 E.37877
G1 X110.655 Y94.252 E.01691
G1 X102.158 Y85.755 E.37873
G1 X101.622 Y85.755 E.01688
G1 X110.119 Y94.251 E.3787
G1 X109.582 Y94.251 E.01691
G1 X101.087 Y85.755 E.37866
G1 X100.551 Y85.756 E.01688
G1 X109.046 Y94.25 E.37863
G1 X108.509 Y94.25 E.01691
G1 X100.015 Y85.756 E.37859
G1 X99.48 Y85.757 E.01688
G1 X107.973 Y94.25 E.37856
G1 X107.436 Y94.249 E.01691
G1 X98.944 Y85.757 E.37852
G1 X98.408 Y85.757 E.01688
G1 X106.9 Y94.249 E.37849
G1 X106.363 Y94.248 E.01691
G1 X97.873 Y85.758 E.37845
G1 X97.337 Y85.758 E.01688
G1 X105.827 Y94.248 E.37842
G1 X105.291 Y94.248 E.01691
G1 X96.801 Y85.759 E.37838
G1 X96.266 Y85.759 E.01688
G1 X104.754 Y94.247 E.37835
G1 X104.218 Y94.247 E.01691
G1 X95.73 Y85.759 E.37831
G1 X95.194 Y85.76 E.01688
G1 X103.681 Y94.246 E.37828
G1 X103.145 Y94.246 E.01691
G1 X94.659 Y85.76 E.37824
G1 X94.123 Y85.761 E.01688
G1 X102.608 Y94.246 E.37821
G1 X102.072 Y94.245 E.01691
G1 X93.588 Y85.761 E.37817
G1 X93.052 Y85.761 E.01688
G1 X101.535 Y94.245 E.37814
G1 X100.999 Y94.245 E.01691
G1 X92.516 Y85.762 E.3781
G1 X91.981 Y85.762 E.01688
G1 X100.463 Y94.244 E.37807
G1 X99.926 Y94.244 E.01691
G1 X91.445 Y85.762 E.37803
G1 X90.909 Y85.763 E.01688
G1 X99.39 Y94.243 E.378
G1 X98.853 Y94.243 E.01691
G1 X90.374 Y85.763 E.37796
G1 X89.838 Y85.764 E.01688
G1 X98.317 Y94.243 E.37793
G1 X97.78 Y94.242 E.01691
G1 X89.302 Y85.764 E.37789
G1 X88.77 Y85.768 E.01678
G1 X97.244 Y94.242 E.37771
G1 X96.708 Y94.241 E.01691
G1 X88.77 Y86.304 E.3538
G1 X88.77 Y86.84 E.0169
G1 X96.171 Y94.241 E.32989
G1 X95.635 Y94.241 E.01691
G1 X88.77 Y87.376 E.30598
G1 X88.77 Y87.912 E.0169
G1 X95.098 Y94.24 E.28207
G1 X94.562 Y94.24 E.01691
G1 X88.77 Y88.448 E.25816
G1 X88.77 Y88.984 E.0169
G1 X94.025 Y94.239 E.23425
G1 X93.489 Y94.239 E.01691
G1 X88.77 Y89.52 E.21034
G1 X88.77 Y90.056 E.0169
G1 X92.952 Y94.239 E.18643
G1 X92.416 Y94.238 E.01691
G1 X88.77 Y90.592 E.16251
G1 X88.77 Y91.128 E.01689
G1 X91.88 Y94.238 E.1386
G1 X91.343 Y94.237 E.01691
G1 X88.77 Y91.664 E.11469
G1 X88.77 Y92.2 E.0169
G1 X90.807 Y94.237 E.09078
G1 X90.27 Y94.237 E.01691
G1 X88.77 Y92.736 E.06687
G1 X88.77 Y93.272 E.0169
G1 X89.734 Y94.236 E.04296
G1 X89.197 Y94.236 E.01691
G1 X88.6 Y93.639 E.02661
M204 P1000
; stop printing object Handle.stl id:0 copy 0
M106 S84.15
;LAYER_CHANGE
;Z:0.35
;HEIGHT:0.15
;BEFORE_LAYER_CHANGE
G92 E0.0
;0.35


G1 E-2.24 F4200
;WIPE_START
G1 F7200
G1 X89.197 Y94.236 E-.46795
G1 X89.734 Y94.236 E-.29728
G1 X89.546 Y94.049 E-.14677
;WIPE_END
G1 E-.048 F4200
G1 Z.4 F720
;AFTER_LAYER_CHANGE
;0.35
G1 X89.542 Y98.199 F9000
G1 Z.35 F720
G1 E3.2 F2400
;TYPE:Skirt/Brim
;WIDTH:0.42
G1 X87.966 Y98.197 E.03813
G1 X86.678 Y97.949 E.03172
G1 X85.409 Y97.205 E.03557
G1 X84.632 Y95.291 E.04996
G1 X84.632 Y84.709 E.25594
G1 X85.026 Y83.292 E.03557
G1 X86.678 Y82.051 E.04996
G1 X87.966 Y81.803 E.03172
G1 X127.057 Y81.762 E.94542
G1 X128.922 Y82.486 E.04838
G1 X129.085 Y82.636 E.00536
G1 X129.864 Y83.884 E.03557
G1 X129.978 Y84.666 E.01911
G1 X129.978 Y95.334 E.25801
G1 X129.585 Y96.752 E.03557
G1 X129.085 Y97.364 E.01911
G1 X128.922 Y97.514 E.00536
G1 X127.057 Y98.238 E.04838
G1 X89.602 Y98.199 E.90584
G1 X89.602 Y97.822 F9000
G1 F2400
G1 X87.966 Y97.82 E.03958
G1 X86.775 Y97.585 E.02937
G1 X85.612 Y96.87 E.033
G1 X85.009 Y95.291 E.04089
G1 X85.009 Y84.709 E.25591
G1 X85.402 Y83.403 E.033
G1 X86.775 Y82.415 E.0409
G1 X87.966 Y82.18 E.02937
G1 X127.057 Y82.139 E.94542
G1 X128.667 Y82.764 E.04176
G1 X128.83 Y82.914 E.00536
G1 X129.6 Y84.666 E.04628
G1 X129.6 Y95.334 E.25801
G1 X128.83 Y97.086 E.04628
G1 X128.667 Y97.236 E.00536
G1 X127.057 Y97.861 E.04176
G1 X89.662 Y97.822 E.90439
; printing object Handle.stl id:0 copy 0
G1 E-2.24 F4200
;WIPE_START
G1 F7200
G1 X88.017 Y97.82 E-.912
;WIPE_END
G1 E-.048 F4200
G1 Z.55 F720
G1 X88.174 Y94.736 F9000
G1 Z.35 F720
G1 E3.2 F2400
M204 P800
;TYPE:Perimeter
;WIDTH:0.45
G1 X88.174 Y85.264 E.24683
G1 X126.493 Y85.229 E.99843
G1 X126.493 Y94.771 E.24865
G1 X88.234 Y94.737 E.99686
M204 P1000
G1 X87.903 Y95.154 F9000
M204 P800
;TYPE:External perimeter
G1 F1800
G1 X87.756 Y95.115 E.00398
G1 X87.756 Y84.885 E.26654
G1 X87.903 Y84.846 E.00398
G1 X126.91 Y84.81 E1.01636
G1 X126.91 Y95.19 E.27044
G1 X87.963 Y95.154 E1.01479
M204 P1000
G1 X87.839 Y95.016 F9000
G1 E-2.24 F4200
;WIPE_START
G1 F7200
G1 X87.756 Y95.115 E-.11706
G1 X87.756 Y93.68 E-.79494
;WIPE_END
G1 E-.048 F4200
G1 Z.55 F720
G1 X126.367 Y93.799 F9000
G1 Z.35 F720
G1 E3.2 F2400
;TYPE:Solid infill
;WIDTH:0.45123
G1 F4800
G1 X125.709 Y94.457 E.02434
G1 X125.117 Y94.457 E.01547
G1 X126.179 Y93.394 E.03927
G1 X126.179 Y92.802 E.01549
G1 X124.525 Y94.456 E.06115
G1 X123.932 Y94.456 E.01547
G1 X126.179 Y92.209 E.08303
G1 X126.179 Y91.616 E.01549
G1 X123.34 Y94.455 E.10492
G1 X122.748 Y94.455 E.01547
G1 X126.179 Y91.024 E.1268
G1 X126.179 Y90.431 E.01549
G1 X122.156 Y94.454 E.14868
G1 X121.564 Y94.454 E.01547
G1 X126.179 Y89.838 E.17056
G1 X126.179 Y89.246 E.01549
G1 X120.972 Y94.453 E.19244
G1 X120.38 Y94.452 E.01547
G1 X126.179 Y88.653 E.21432
G1 X126.179 Y88.061 E.01549
G1 X119.788 Y94.452 E.2362
G1 X119.196 Y94.451 E.01547
G1 X126.179 Y87.468 E.25808
G1 X126.179 Y86.875 E.01549
G1 X118.604 Y94.451 E.27996
G1 X118.012 Y94.45 E.01547
G1 X126.179 Y86.283 E.30185
G1 X126.179 Y85.69 E.01549
G1 X117.42 Y94.45 E.32373
G1 X116.828 Y94.449 E.01547
G1 X125.734 Y85.543 E.32916
G1 X125.141 Y85.543 E.0155
G1 X116.236 Y94.449 E.32912
G1 X115.643 Y94.448 E.01547
G1 X124.548 Y85.544 E.32908
G1 X123.955 Y85.544 E.0155
G1 X115.051 Y94.448 E.32904
G1 X114.459 Y94.447 E.01547
G1 X123.362 Y85.545 E.329
G1 X122.768 Y85.545 E.0155
G1 X113.867 Y94.447 E.32896
G1 X113.275 Y94.446 E.01547
G1 X122.175 Y85.546 E.32892
G1 X121.582 Y85.546 E.0155
G1 X112.683 Y94.445 E.32888
G1 X112.091 Y94.445 E.01547
G1 X120.989 Y85.547 E.32884
G1 X120.396 Y85.547 E.0155
G1 X111.499 Y94.444 E.3288
G1 X110.907 Y94.444 E.01547
G1 X119.803 Y85.548 E.32876
G1 X119.21 Y85.549 E.0155
G1 X110.315 Y94.443 E.32872
G1 X109.723 Y94.443 E.01547
G1 X118.616 Y85.549 E.32868
G1 X118.023 Y85.55 E.0155
G1 X109.131 Y94.442 E.32864
G1 X108.539 Y94.442 E.01547
G1 X117.43 Y85.55 E.3286
G1 X116.837 Y85.551 E.0155
G1 X107.946 Y94.441 E.32856
G1 X107.354 Y94.441 E.01547
G1 X116.244 Y85.551 E.32852
G1 X115.651 Y85.552 E.0155
G1 X106.762 Y94.44 E.32848
G1 X106.17 Y94.44 E.01547
G1 X115.057 Y85.552 E.32844
G1 X114.464 Y85.553 E.0155
G1 X105.578 Y94.439 E.3284
G1 X104.986 Y94.438 E.01547
G1 X113.871 Y85.553 E.32836
G1 X113.278 Y85.554 E.0155
G1 X104.394 Y94.438 E.32832
G1 X103.802 Y94.437 E.01547
G1 X112.685 Y85.555 E.32828
G1 X112.092 Y85.555 E.0155
G1 X103.21 Y94.437 E.32824
G1 X102.618 Y94.436 E.01547
G1 X111.499 Y85.556 E.3282
G1 X110.905 Y85.556 E.0155
G1 X102.026 Y94.436 E.32816
G1 X101.434 Y94.435 E.01547
G1 X110.312 Y85.557 E.32812
G1 X109.719 Y85.557 E.0155
G1 X100.842 Y94.435 E.32808
G1 X100.25 Y94.434 E.01547
G1 X109.126 Y85.558 E.32804
G1 X108.533 Y85.558 E.0155
G1 X99.657 Y94.434 E.328
G1 X99.065 Y94.433 E.01547
G1 X107.94 Y85.559 E.32796
G1 X107.346 Y85.559 E.0155
G1 X98.473 Y94.433 E.32792
G1 X97.881 Y94.432 E.01547
G1 X106.753 Y85.56 E.32788
G1 X106.16 Y85.56 E.0155
G1 X97.289 Y94.431 E.32784
G1 X96.697 Y94.431 E.01547
G1 X105.567 Y85.561 E.3278
G1 X104.974 Y85.562 E.0155
G1 X96.105 Y94.43 E.32776
G1 X95.513 Y94.43 E.01547
M73 P1 R180
G1 X104.381 Y85.562 E.32772
G1 X103.788 Y85.563 E.0155
G1 X94.921 Y94.429 E.32768
G1 X94.329 Y94.429 E.01547
G1 X103.194 Y85.563 E.32764
G1 X102.601 Y85.564 E.0155
G1 X93.737 Y94.428 E.3276
G1 X93.145 Y94.428 E.01547
G1 X102.008 Y85.564 E.32756
G1 X101.415 Y85.565 E.0155
G1 X92.553 Y94.427 E.32752
G1 X91.961 Y94.427 E.01547
G1 X100.822 Y85.565 E.32748
G1 X100.229 Y85.566 E.0155
G1 X91.368 Y94.426 E.32744
G1 X90.776 Y94.426 E.01547
G1 X99.635 Y85.566 E.32741
G1 X99.042 Y85.567 E.0155
G1 X90.184 Y94.425 E.32737
G1 X89.592 Y94.424 E.01547
G1 X98.449 Y85.567 E.32733
G1 X97.856 Y85.568 E.0155
G1 X89 Y94.424 E.32729
G1 X88.487 Y94.423 E.01341
G1 X88.487 Y94.344 E.00207
G1 X97.263 Y85.569 E.32433
G1 X96.67 Y85.569 E.0155
G1 X88.487 Y93.752 E.30241
G1 X88.487 Y93.159 E.01549
G1 X96.077 Y85.57 E.28048
G1 X95.483 Y85.57 E.0155
G1 X88.487 Y92.567 E.25856
G1 X88.487 Y91.974 E.01549
G1 X94.89 Y85.571 E.23664
G1 X94.297 Y85.571 E.0155
G1 X88.487 Y91.381 E.21472
G1 X88.487 Y90.789 E.01549
G1 X93.704 Y85.572 E.1928
G1 X93.111 Y85.572 E.0155
G1 X88.487 Y90.196 E.17088
G1 X88.487 Y89.603 E.01549
G1 X92.518 Y85.573 E.14896
G1 X91.925 Y85.573 E.0155
G1 X88.487 Y89.011 E.12704
G1 X88.487 Y88.418 E.01549
G1 X91.331 Y85.574 E.10512
G1 X90.738 Y85.575 E.0155
G1 X88.487 Y87.826 E.08319
G1 X88.487 Y87.233 E.01549
G1 X90.145 Y85.575 E.06127
G1 X89.552 Y85.576 E.0155
G1 X88.487 Y86.64 E.03935
G1 X88.487 Y86.048 E.01549
G1 X89.147 Y85.388 E.02439
; stop printing object Handle.stl id:0 copy 0
M106 S170.85
;LAYER_CHANGE
;Z:0.5
;HEIGHT:0.15
;BEFORE_LAYER_CHANGE
G92 E0.0
;0.5


G1 E-2.24 F4200
;WIPE_START
G1 F7200
G1 X88.487 Y86.048 E-.51714
G1 X88.487 Y86.64 E-.32841
G1 X88.572 Y86.556 E-.06646
;WIPE_END
G1 E-.048 F4200
G1 Z.55 F720
;AFTER_LAYER_CHANGE
;0.5
G1 X84.632 Y86.556 F9000
G1 Z.5 F720
G1 E3.2 F2400
;TYPE:Skirt/Brim
;WIDTH:0.42
G1 X84.632 Y84.709 E.04467
G1 X85.026 Y83.292 E.03557
G1 X86.678 Y82.051 E.04996
G1 X87.966 Y81.803 E.03172
G1 X127.057 Y81.762 E.94542
G1 X128.922 Y82.486 E.04838
G1 X129.085 Y82.636 E.00536
G1 X129.864 Y83.884 E.03557
G1 X129.978 Y84.666 E.01911
G1 X129.978 Y95.334 E.25801
G1 X129.585 Y96.752 E.03557
G1 X129.085 Y97.364 E.01911
G1 X128.922 Y97.514 E.00536
G1 X127.057 Y98.238 E.04838
G1 X87.966 Y98.197 E.94542
G1 X86.678 Y97.949 E.03172
M73 P1 R179
G1 X85.409 Y97.205 E.03557
G1 X84.632 Y95.291 E.04996
G1 X84.632 Y86.616 E.20982
G1 X85.009 Y86.616 F9000
G1 F2400
G1 X85.009 Y84.709 E.04611
G1 X85.402 Y83.403 E.033
G1 X86.775 Y82.415 E.0409
G1 X87.966 Y82.18 E.02937
G1 X127.057 Y82.139 E.94542
G1 X128.667 Y82.764 E.04176
G1 X128.83 Y82.914 E.00536
G1 X129.6 Y84.666 E.04628
G1 X129.6 Y95.334 E.25801
G1 X128.83 Y97.086 E.04628
G1 X128.667 Y97.236 E.00536
G1 X127.057 Y97.861 E.04176
G1 X87.966 Y97.82 E.94542
G1 X86.775 Y97.585 E.02937
